svgs/light/pegasus.svg

<svg xmlns="http://www.w3.org/2000/svg" viewBox="0 0 576 512"><!-- Font Awesome Pro 6.0.0-alpha2 by @fontawesome - https://fontawesome.com License - https://fontawesome.com/license (Commercial License) --><path d="M576 86.25V180.324C576 200.83 562.926 219.055 543.5 225.625L518 234.25C512.5 236.125 481.625 244.125 462.5 215.5L448 193.75V244.25C448 274 436.5 302.25 416 323.75V464C416 490.51 394.51 512 368 512H336C309.49 512 288 490.51 288 464V351.5L204.125 332.875L184.875 386.625L201.469 452.23C209.139 482.557 186.215 512 154.934 512H130.594C108.406 512 89.109 496.793 83.922 475.219L65.75 399.625C63.125 388.875 63.5 377.625 66.5 366.875L88.5 292.625C72.875 274.75 64 251.625 64 227.375C64 221.5 64.75 216 65.75 210.375C46.25 216.5 32 234.5 32 256V304C32 312.836 24.836 320 16 320S0 312.836 0 304V256C0 212.25 35.125 176.875 78.625 176.125C90.375 156.875 108.125 142.25 129.25 134.375C130.25 145.25 132.25 155.875 135.375 166.25C112.25 176.875 96 200.125 96 227.375C96 250.25 107.5 270.375 124.875 282.5L97.25 376C95.715 381.197 95.572 386.707 96.84 391.977L115.053 467.738C116.781 474.93 123.213 480 130.609 480H154.955C165.381 480 173.021 470.188 170.469 460.08L151.5 385L183.625 295.5L320 325.75V464C320 472.836 327.164 480 336 480H368C376.836 480 384 472.836 384 464V309.75C403.375 294.375 416 270.875 416 244.25V144L464 160L489.125 197.75C491.5 201.25 498.25 207.25 507.625 204L533.125 195.25C539.625 193.125 544 187 544 180.125V86.25L523.5 61.5C535.125 56.625 543.25 45.25 543.25 32H432C378.98 32 336 74.98 336 128V160C276.125 160 229.375 130.25 200 73.75C194.75 88.875 192 104.75 192 121.125C192 181.625 237.75 236.5 299.5 251.625C303.625 252.75 306.375 256.625 305.5 260.875L302.625 276.5C301.75 281 297.25 284 292.875 283C216.5 264.75 160 196.5 160 121.125C160 95.125 165.625 70 176.75 46.375C181 37.375 189.375 32.25 199.875 32C209.875 32.125 218.875 38.125 222.875 47.375C241.25 89.25 268.75 114.75 304.375 123.875C306.625 55.25 362.875 0 432 0L543.25 -0.002C560.031 -0.002 574.637 13.033 575.209 29.805C575.625 41.975 572.604 53.641 566.75 63.75C572.25 70.375 576 76.625 576 86.25ZM496 96C496 87.125 488.875 80 480 80S464 87.125 464 96S471.125 112 480 112S496 104.875 496 96Z"/></svg>

<svg xmlns="http://www.w3.org/2000/svg" viewBox="0 0 576 512"><!--! Font Awesome Pro 6.3.0 by @fontawesome - https://fontawesome.com License - https://fontawesome.com/license (Commercial License) Copyright 2023 Fonticons, Inc. --><path d="M576 86.25v94.07c0 20.51-13.07 38.73-32.5 45.3l-25.5 8.625C512.5 236.1 481.6 244.1 462.5 215.5L448 193.8v50.5c0 29.75-11.5 58-32 79.5V464c0 26.51-21.49 48-48 48h-32c-26.51 0-48-21.49-48-48v-112.5l-83.88-18.62l-19.25 53.75l16.59 65.61C209.1 482.6 186.2 512 154.9 512H130.6c-22.19 0-41.48-15.21-46.67-36.78l-18.17-75.59c-2.625-10.75-2.25-22 .75-32.75l22-74.25C72.88 274.8 64 251.6 64 227.4C64 221.5 64.75 216 65.75 210.4C46.25 216.5 32 234.5 32 256v48C32 312.8 24.84 320 15.1 320S0 312.8 0 304V256c0-43.75 35.13-79.13 78.63-79.88c11.75-19.25 29.5-33.88 50.63-41.75c1 10.88 3 21.5 6.125 31.88C112.3 176.9 96 200.1 96 227.4c0 22.88 11.5 43 28.88 55.13L97.25 376c-1.535 5.197-1.678 10.71-.4102 15.98l18.21 75.76C116.8 474.9 123.2 480 130.6 480h24.35c10.43 0 18.07-9.812 15.51-19.92L151.5 385l32.13-89.5L320 325.8V464c0 8.836 7.164 16 16 16h32c8.836 0 15.99-7.164 15.99-16L384 309.8c19.38-15.38 32-38.88 32-65.5V144L464 160l25.12 37.75c2.375 3.5 9.125 9.5 18.5 6.25l25.5-8.75C539.6 193.1 544 187 544 180.1V86.25L523.5 61.5C535.1 56.63 543.3 45.25 543.3 32H432c-53.02 0-96 42.98-96 96l-.0097 32C276.1 160 229.4 130.3 200 73.75C194.8 88.88 192 104.8 192 121.1c0 60.5 45.75 115.4 107.5 130.5c4.125 1.125 6.875 5 6 9.25L302.6 276.5C301.8 281 297.3 284 292.9 283C216.5 264.8 160 196.5 160 121.1c0-26 5.625-51.13 16.75-74.75C181 37.38 189.4 32.25 199.9 32c10 .125 19 6.125 23 15.38c18.38 41.88 45.88 67.38 81.5 76.5C306.6 55.25 362.9 0 431.1 0l111.3-.002c16.78 0 31.39 13.04 31.96 29.81c.416 12.17-2.605 23.84-8.459 33.95C572.3 70.38 576 76.63 576 86.25zM496 96c0-8.875-7.125-16-16-16S464 87.13 464 96s7.125 16 16 16S496 104.9 496 96z"/></svg>
